X: 24
T:Pasacorredoiras da Barreira
M:2/4
L:1/16
Q:100
C:Trad
S:X.L.Foxo
R:Pasacorredoiras
K:D
DEFG | A4 {c}AGAB | A2F2 {c}FEFG | F2E2 {c}EDEF |
E2D2 {c}DEFG | A4 {c}AGAB | A2F2 {c}FEFG | FEDF EDCE |
D2{c}D2 {c}D4 | {c}DEFG A4 | {c}AGAB A2F2 | {c}FEFG F2E2 | EDEF E2D2 |
{c}DEFG A4| {c}AGAB A2F2 |FEFG FEDF | EDCE D2{c}D2 |
{G}D4 A2F2 | D2AB AGFG | E4 G2E2 | C2GA GFEF | D4 A2F2 |
D2AB AGFG | E4 G2F2 | A2G2 F2E2 | D2{B}D2 {G}D4 | A2F2 D2AB |
AGFG E4 | G2E2 C2GA | GFEF D4 | A2F2 D2AB |
AGFG E4 | G2F2 A2G2 | F2E2 D2{c}D2 | {G}D4 ||

